X:502
T:Ben Lomond
O:england
B:Complete Repository, Part Third (c1810-20)
M:4/4
L:1/8
K:D
B|A>FAB AFAB|B>ABd|e/e/e e2|d<ff>d e>Bd>A|B<dA>F D/D/D D:|]
f/g/|a>fd>f a>fdf|e>def e/e/e ef/g/|a>fdf a>baf|e>def d/d/d df/g|
a>fd>f a>fdf|e>def e/e/e e2|d<ff>d e>Bd>A|B<dA>F D/D/D D|]


